assets/images/suitcase.svg

<svg xmlns="http://www.w3.org/2000/svg" x="0" y="0" viewBox="0 0 20 20"><path fill-rule="evenodd" d="M6 2C6 0.89543 6.89543 0 8 0H12C13.1046 0 14 0.89543 14 2V5H15C16.1046 5 17 5.89543 17 7V16C17 17.1046 16.1046 18 15 18H14.9146C14.9699 18.1564 15 18.3247 15 18.5C15 19.3284 14.3284 20 13.5 20C12.6716 20 12 19.3284 12 18.5C12 18.3247 12.0301 18.1564 12.0854 18H7.91465C7.96992 18.1564 8 18.3247 8 18.5C8 19.3284 7.32843 20 6.5 20C5.67157 20 5 19.3284 5 18.5C5 18.3247 5.03008 18.1564 5.08535 18H5C3.89543 18 3 17.1046 3 16V7C3 5.89543 3.89543 5 5 5H6V2ZM8 5H12V2H8V5ZM7.5 8C6.94772 8 6.5 8.44772 6.5 9V14C6.5 14.5523 6.94772 15 7.5 15C8.05228 15 8.5 14.5523 8.5 14V9C8.5 8.44772 8.05228 8 7.5 8ZM12.5 8C11.9477 8 11.5 8.44772 11.5 9V14C11.5 14.5523 11.9477 15 12.5 15C13.0523 15 13.5 14.5523 13.5 14V9C13.5 8.44772 13.0523 8 12.5 8Z" clip-rule="evenodd"/></svg>

<svg xmlns="http://www.w3.org/2000/svg" viewBox="0 0 20 20"><path fill-rule="evenodd" d="M6 2a2 2 0 0 1 2-2h4a2 2 0 0 1 2 2v3h1a2 2 0 0 1 2 2v9a2 2 0 0 1-2 2h-.085q.084.236.085.5a1.5 1.5 0 1 1-2.915-.5h-4.17q.084.236.085.5a1.5 1.5 0 1 1-2.915-.5H5a2 2 0 0 1-2-2V7a2 2 0 0 1 2-2h1zm2 3h4V2H8zm-.5 3a1 1 0 0 0-1 1v5a1 1 0 1 0 2 0V9a1 1 0 0 0-1-1m5 0a1 1 0 0 0-1 1v5a1 1 0 1 0 2 0V9a1 1 0 0 0-1-1" clip-rule="evenodd"/></svg>
